X:1
T:[ID 3v-18a (= 3-95a)]
T:[ID 3v-18a (= 3-95a)]
T:Bezeichnung standardisiert: Anglaise Angl.
T:Urheber unbekannt Datum in der hier transkribierten schriftlichen Quelle: 1767
C:Urheber unbekannt
C:Datum in der hier transkribierten schriftlichen Quelle: 1767
L:1/8
M:3/8
K:Bb
V:1 treble 
V:1
 (A/B/)(A/B/)(A/B/) | d2 B | (A/c/)(A/c/)(A/c/) | e2 c | b(f^f) | gec | F/c/A/c/A/c/ | B3 :: %8
 (D/F/)(D/F/)(D/F/) | BFD | (Fe)e | (Fc)c | (D/F/)(D/F/)(D/F/) | BFD | Fe/F/e/F/ | B3 :: %16
[K:Eb] (ed).c | (BA).G | FGA | A2 G | FGA | GFE | DF/D/F/D/ | E3 :| %24

